icons/svg/subway/subway_almaty.svg

<?xml version="1.0" encoding="UTF-8" standalone="no"?>
<svg
   xmlns:dc="http://purl.org/dc/elements/1.1/"
   xmlns:cc="http://creativecommons.org/ns#"
   xmlns:rdf="http://www.w3.org/1999/02/22-rdf-syntax-ns#"
   xmlns:svg="http://www.w3.org/2000/svg"
   xmlns="http://www.w3.org/2000/svg"
   xmlns:sodipodi="http://sodipodi.sourceforge.net/DTD/sodipodi-0.dtd"
   xmlns:inkscape="http://www.inkscape.org/namespaces/inkscape"
   width="16"
   height="16"
   id="svg2"
   version="1.1"
   inkscape:version="0.91 r"
   sodipodi:docname="subway_almaty.svg">
  <defs
     id="defs13">
    <linearGradient
       gradientTransform="matrix(0.08596979,0,0,0.08596979,0.67480439,1.9432845)"
       x1="87.101639"
       y1="121.69753"
       x2="87.260849"
       y2="1.2385538"
       id="l1"
       gradientUnits="userSpaceOnUse">
      <stop
         style="stop-color:#e92203;stop-opacity:1"
         offset="0"
         id="stop5" />
      <stop
         style="stop-color:#ff0000;stop-opacity:0.64628822"
         offset="1"
         id="stop7" />
    </linearGradient>
    <linearGradient
       gradientTransform="matrix(0.08400469,0,0,0.08400469,0.8422306,2.0814238)"
       x1="87.101639"
       y1="121.69753"
       x2="87.260849"
       y2="1.2385538"
       id="l1-2"
       gradientUnits="userSpaceOnUse">
      <stop
         style="stop-color:#e92203;stop-opacity:1"
         offset="0"
         id="stop5-8" />
      <stop
         style="stop-color:#ff0000;stop-opacity:0.64628822"
         offset="1"
         id="stop7-4" />
    </linearGradient>
  </defs>
  <sodipodi:namedview
     pagecolor="#ffffff"
     bordercolor="#666666"
     borderopacity="1"
     objecttolerance="10"
     gridtolerance="10"
     guidetolerance="10"
     inkscape:pageopacity="0"
     inkscape:pageshadow="2"
     inkscape:window-width="1920"
     inkscape:window-height="1004"
     id="namedview11"
     showgrid="true"
     inkscape:zoom="32"
     inkscape:cx="13.440823"
     inkscape:cy="8.6231525"
     inkscape:window-x="1680"
     inkscape:window-y="0"
     inkscape:window-maximized="1"
     inkscape:current-layer="svg2"
     showguides="false"
     inkscape:snap-global="false">
    <sodipodi:guide
       position="0,0"
       orientation="0,580"
       id="guide2989" />
    <sodipodi:guide
       position="580,0"
       orientation="-580,0"
       id="guide2991" />
    <sodipodi:guide
       position="580,580"
       orientation="0,-580"
       id="guide2993" />
    <sodipodi:guide
       position="0,580"
       orientation="580,0"
       id="guide2995" />
    <sodipodi:guide
       position="0,0"
       orientation="0,580"
       id="guide2997" />
    <sodipodi:guide
       position="580,0"
       orientation="-580,0"
       id="guide2999" />
    <sodipodi:guide
       position="580,580"
       orientation="0,-580"
       id="guide3001" />
    <sodipodi:guide
       position="0,580"
       orientation="580,0"
       id="guide3003" />
    <inkscape:grid
       type="xygrid"
       id="grid3013"
       empspacing="5"
       visible="true"
       enabled="true"
       snapvisiblegridlinesonly="true" />
  </sodipodi:namedview>
  <metadata
     id="metadata2975">image/svg+xmlen<rdf:RDF>
  <cc:Work
     rdf:about="">
    <dc:format>image/svg+xml</dc:format>
    <dc:type
       rdf:resource="http://purl.org/dc/dcmitype/StillImage" />
    <dc:title />
  </cc:Work>
</rdf:RDF>
</metadata>
  <path
     sodipodi:type="inkscape:offset"
     inkscape:radius="0.47238174"
     inkscape:original="M 7.9375 3.9433594 C 5.380331 3.9433594 3.3027344 5.9018858 3.3027344 8.3125 C 3.3027344 8.4366137 3.3244639 8.5315771 3.3417969 8.6308594 C 3.0542659 8.5297489 2.7815883 8.4364021 2.4726562 8.3261719 L 2.34375 8.59375 L 7.9414062 12.056641 L 13.65625 8.5527344 L 13.527344 8.2832031 C 13.106591 8.5039416 12.725863 8.6730496 12.34375 8.8417969 C 12.34635 8.8288309 12.347109 8.8157204 12.349609 8.8027344 L 12.533203 8.734375 C 12.551053 8.5787505 12.572266 8.4725511 12.572266 8.3125 C 12.572266 5.9018861 10.494669 3.9433594 7.9375 3.9433594 z "
     style="color:#000000;clip-rule:nonzero;display:inline;overflow:visible;visibility:visible;opacity:1;isolation:auto;mix-blend-mode:normal;color-interpolation:sRGB;color-interpolation-filters:linearRGB;solid-color:#000000;solid-opacity:1;fill:#fefefe;fill-opacity:1;fill-rule:nonzero;stroke:none;stroke-width:1;stroke-linecap:butt;stroke-linejoin:miter;stroke-miterlimit:4;stroke-dasharray:none;stroke-dashoffset:0;stroke-opacity:1;marker:none;color-rendering:auto;image-rendering:auto;shape-rendering:auto;text-rendering:auto;enable-background:accumulate"
     id="path4336"
     d="m 7.9375,3.4707031 c -2.673903,0 -4.8423541,1.9906266 -5.0351562,4.5058594 C 2.8116968,7.9447941 2.726557,7.9150053 2.6308594,7.8808594 A 0.47242898,0.47242898 0 0 0 2.046875,8.1210938 L 1.9179688,8.3886719 a 0.47242898,0.47242898 0 0 0 0.1777343,0.6074219 l 5.5976563,3.4628902 a 0.47242898,0.47242898 0 0 0 0.4941406,0 L 13.902344,8.9550781 A 0.47242898,0.47242898 0 0 0 14.082031,8.3496094 L 13.953125,8.0800781 A 0.47242898,0.47242898 0 0 0 13.308594,7.8652344 C 13.194315,7.9251882 13.092036,7.9661087 12.982422,8.0195312 12.812952,5.4828102 10.627362,3.4707031 7.9375,3.4707031 Z"
     transform="matrix(0.97930016,0,0,0.97930016,0.16617001,0.16587141)" />
  <path
     style="color:#000000;clip-rule:nonzero;display:inline;overflow:visible;visibility:visible;opacity:1;isolation:auto;mix-blend-mode:normal;color-interpolation:sRGB;color-interpolation-filters:linearRGB;solid-color:#000000;solid-opacity:1;fill:#fefefe;fill-opacity:1;fill-rule:nonzero;stroke:none;stroke-width:1;stroke-linecap:butt;stroke-linejoin:miter;stroke-miterlimit:4;stroke-dasharray:none;stroke-dashoffset:0;stroke-opacity:1;marker:none;color-rendering:auto;image-rendering:auto;shape-rendering:auto;text-rendering:auto;enable-background:accumulate"
     d="M 7.9386989,4.2392217 C 5.513568,4.2390112 3.5475519,5.9929041 3.547788,8.1563755 c 0.0014,0.2617278 0.032177,0.5226724 0.091908,0.7789211 L 8.0489887,10.38655 12.246891,8.9004502 c 0.0541,-0.2451041 0.08181,-0.494264 0.08271,-0.7440747 2.4e-4,-2.1634716 -1.965777,-3.9173644 -4.3909062,-3.9171538 z"
     id="path4252-6"
     inkscape:connector-curvature="0"
     sodipodi:nodetypes="ccccccc" />
  <path
     style="color:#000000;clip-rule:nonzero;display:inline;overflow:visible;visibility:visible;opacity:1;isolation:auto;mix-blend-mode:normal;color-interpolation:sRGB;color-interpolation-filters:linearRGB;solid-color:#000000;solid-opacity:1;fill:#6caae4;fill-opacity:1;fill-rule:nonzero;stroke:none;stroke-width:1;stroke-linecap:butt;stroke-linejoin:miter;stroke-miterlimit:4;stroke-dasharray:none;stroke-dashoffset:0;stroke-opacity:1;marker:none;color-rendering:auto;image-rendering:auto;shape-rendering:auto;text-rendering:auto;enable-background:accumulate"
     d="m 8.0122416,4.6503758 c -2.5620505,0 -3.9816228,2.4435218 -3.3950348,4.4584935 L 8.1040508,10.38655 11.399624,9.0304488 C 11.932572,6.8017619 10.574291,4.6503758 8.0122416,4.6503758 Z"
     id="path4252"
     inkscape:connector-curvature="0"
     sodipodi:nodetypes="zcccz" />
  <g
     transform="matrix(0.06992327,0,0,0.06992327,4.725813,4.7255365)"
     id="g11" />
  <g
     transform="matrix(0.06992327,0,0,0.06992327,4.725813,4.7255365)"
     id="g13" />
  <g
     transform="matrix(0.06992327,0,0,0.06992327,4.725813,4.7255365)"
     id="g15" />
  <g
     transform="matrix(0.06992327,0,0,0.06992327,4.725813,4.7255365)"
     id="g17" />
  <g
     transform="matrix(0.06992327,0,0,0.06992327,4.725813,4.7255365)"
     id="g19" />
  <g
     transform="matrix(0.06992327,0,0,0.06992327,4.725813,4.7255365)"
     id="g21" />
  <g
     transform="matrix(0.06992327,0,0,0.06992327,4.725813,4.7255365)"
     id="g23" />
  <g
     transform="matrix(0.06992327,0,0,0.06992327,4.725813,4.7255365)"
     id="g25" />
  <g
     transform="matrix(0.06992327,0,0,0.06992327,4.725813,4.7255365)"
     id="g27" />
  <g
     transform="matrix(0.06992327,0,0,0.06992327,4.725813,4.7255365)"
     id="g29" />
  <g
     transform="matrix(0.06992327,0,0,0.06992327,4.725813,4.7255365)"
     id="g31" />
  <g
     transform="matrix(0.06992327,0,0,0.06992327,4.725813,4.7255365)"
     id="g33" />
  <g
     transform="matrix(0.06992327,0,0,0.06992327,4.725813,4.7255365)"
     id="g35" />
  <g
     transform="matrix(0.06992327,0,0,0.06992327,4.725813,4.7255365)"
     id="g37" />
  <g
     transform="matrix(0.06992327,0,0,0.06992327,4.725813,4.7255365)"
     id="g39" />
  <path
     style="color:#000000;font-style:normal;font-variant:normal;font-weight:normal;font-stretch:normal;font-size:medium;line-height:normal;font-family:sans-serif;text-indent:0;text-align:start;text-decoration:none;text-decoration-line:none;text-decoration-style:solid;text-decoration-color:#000000;letter-spacing:normal;word-spacing:normal;text-transform:none;direction:ltr;block-progression:tb;writing-mode:lr-tb;baseline-shift:baseline;text-anchor:start;white-space:normal;clip-rule:nonzero;display:inline;overflow:visible;visibility:visible;opacity:1;isolation:auto;mix-blend-mode:normal;color-interpolation:sRGB;color-interpolation-filters:linearRGB;solid-color:#000000;solid-opacity:1;fill:#3c88cf;fill-opacity:1;fill-rule:nonzero;stroke:none;stroke-width:1;stroke-linecap:butt;stroke-linejoin:miter;stroke-miterlimit:4;stroke-dasharray:none;stroke-dashoffset:0;stroke-opacity:1;marker:none;color-rendering:auto;image-rendering:auto;shape-rendering:auto;text-rendering:auto;enable-background:accumulate"
     d="m 7.9999945,4.026837 c -2.504236,0 -4.5388267,1.9179854 -4.5388267,4.2787001 0,0.1736897 0.03048,0.3210694 0.053857,0.4463707 0.1467809,0.050283 0.2679435,0.095129 0.4504334,0.1587538 -0.040607,-0.219225 -0.08835,-0.3748165 -0.08835,-0.6051245 0,-2.1490135 1.8432217,-3.8865975 4.122886,-3.8865975 2.2796623,2e-7 4.1228853,1.737584 4.1228853,3.8865975 0,0.2173824 -0.03823,0.3774229 -0.07449,0.585013 l 0.452464,-0.1702299 c 0.01749,-0.152403 0.03798,-0.2580449 0.03798,-0.4147831 0,-2.3607146 -2.034591,-4.2787 -4.5388258,-4.2787001 z"
     id="path4189"
     inkscape:connector-curvature="0"
     sodipodi:nodetypes="ssccsssccss" />
  <path
     style="fill:#2a2347;fill-opacity:1;fill-rule:evenodd;stroke:#3c88cf;stroke-width:0.29379004;stroke-linecap:square;stroke-linejoin:miter;stroke-miterlimit:4;stroke-dasharray:none;stroke-opacity:1"
     d="M 2.5381907,8.4578516 7.9427009,11.801182 13.462289,8.4158851 7.937291,10.383783 Z"
     id="path4214"
     inkscape:connector-curvature="0"
     sodipodi:nodetypes="ccccc" />
  <path
     style="fill:#d4cd58;fill-opacity:1;fill-rule:evenodd;stroke:none;stroke-width:0.1;stroke-linecap:butt;stroke-linejoin:miter;stroke-miterlimit:4;stroke-dasharray:none;stroke-opacity:1"
     d="M 7.3592463,8.7722349 C 7.1087711,8.7805883 6.838993,9.0706153 6.7242313,9.1547739 6.6094696,9.2389321 6.4411524,9.1777259 6.3340414,9.1241709 6.2269304,9.0706159 6.1963274,8.929076 6.1963274,8.929076 c 0,0 -0.1338888,-0.099461 -0.2792536,-0.045905 -0.1453649,0.053555 -0.1529439,0.1702552 -0.080333,0.3251581 0.057381,0.1224125 0.1892128,0.064609 0.3060313,0.076508 C 6.4466756,9.4759255 6.6266581,9.4531562 6.80839,9.3919483 6.9901221,9.3307401 7.1010055,9.0847842 7.3592464,9.0323616 7.5585623,8.9919013 7.8565474,9.2236317 7.8106426,9.3077897 7.7647375,9.3919478 7.5081491,9.2265279 7.3860239,9.2963137 7.2253575,9.3881228 7.0914688,9.6061703 7.1832781,9.7132813 7.2750872,9.8203925 7.3515954,9.6520742 7.5543412,9.5373134 7.8032633,9.3382098 7.9980865,9.8050907 7.9980865,9.8050907 l 0.00191,-0.00384 0.00191,0.00384 c 0,0 0.1772431,-0.3047561 0.4437453,-0.2677773 0.2307634,0.03202 0.2792559,0.2830792 0.3710654,0.1759683 C 8.9085328,9.6061705 8.7746447,9.3881235 8.613978,9.296314 8.4918528,9.2265283 8.2352643,9.3919481 8.1893596,9.30779 8.1434545,9.223632 8.4414398,8.991901 8.6407558,9.0323619 c 0.2582408,0.052423 0.3691243,0.2983787 0.5508564,0.3595868 0.1817317,0.061208 0.3617145,0.083978 0.6656179,-0.1071113 0.1168186,-0.011898 0.2486489,0.045905 0.3060309,-0.076508 0.0726,-0.154903 0.06503,-0.2716028 -0.08033,-0.3251582 -0.1453647,-0.053555 -0.2792529,0.045905 -0.2792529,0.045905 0,0 -0.030603,0.1415393 -0.137714,0.1950949 C 9.5588477,9.1777262 9.3905304,9.238933 9.2757686,9.1547741 9.1610056,9.0706153 8.8912274,8.7805846 8.6407523,8.7722349 8.4179525,8.7648078 8.2673497,8.8328818 7.9999993,9.0534012 7.732649,8.8328818 7.582046,8.7648078 7.3592463,8.7722349 Z"
     id="path4216"
     inkscape:connector-curvature="0"
     sodipodi:nodetypes="ssscsscsssssccccssssssccscssscs" />
  <path
     style="fill:#ff0d00;fill-opacity:1;fill-rule:evenodd;stroke:none;stroke-width:1px;stroke-linecap:butt;stroke-linejoin:miter;stroke-opacity:1"
     d="m 7.15937,4.9965739 -2.0791002,3.6322088 1.4402598,0 0.6732688,-1.3312362 0.8014195,1.1954348 0.8702766,-1.1954348 0.8339352,1.3312362 1.2069093,0 0.01339,-0.015302 L 8.9286114,5.0118754 7.9990413,6.5114287 7.1593681,4.9965739 Z"
     id="path4237"
     inkscape:connector-curvature="0" />
</svg>

<svg width="16" height="16" viewBox="0 0 16 16" fill="none" xmlns="http://www.w3.org/2000/svg">
<path d="M7.93938 3.56473C5.32083 3.56473 3.19727 5.51415 3.00845 7.97732C2.91968 7.94621 2.83631 7.91703 2.74259 7.88359C2.63503 7.84534 2.51713 7.84821 2.41156 7.89164C2.30599 7.93507 2.2202 8.01599 2.17069 8.11886L2.04446 8.3809C1.99473 8.48401 1.985 8.6019 2.01715 8.71177C2.0493 8.82164 2.12105 8.9157 2.21851 8.97574L7.7003 12.367C7.7731 12.4116 7.85684 12.4353 7.94225 12.4353C8.02766 12.4353 8.11141 12.4116 8.18421 12.367L13.7808 8.93558C13.8781 8.87588 13.9499 8.7823 13.9824 8.67284C14.0149 8.56338 14.0057 8.44577 13.9567 8.34264L13.8305 8.07869C13.8037 8.0227 13.7659 7.97267 13.7193 7.9316C13.6728 7.89052 13.6184 7.85924 13.5595 7.83961C13.5006 7.81998 13.4384 7.8124 13.3765 7.81733C13.3146 7.82225 13.2543 7.83959 13.1993 7.86829C13.0874 7.92701 12.9872 7.96708 12.8799 8.0194C12.7139 5.53518 10.5736 3.56473 7.93938 3.56473Z" fill="#FEFEFE"/>
<path d="M7.9387 4.23923C5.51357 4.23902 3.54755 5.99291 3.54779 8.15638C3.54919 8.41811 3.57997 8.67905 3.6397 8.9353L8.04899 10.3866L12.2469 8.90046C12.301 8.65535 12.3287 8.40619 12.3296 8.15638C12.3298 5.99291 10.3638 4.23902 7.9387 4.23923H7.9387Z" fill="#FEFEFE"/>
<path d="M8.01222 4.65039C5.45017 4.65039 4.0306 7.09391 4.61719 9.10888L8.10403 10.3866L11.3996 9.03046C11.9326 6.80178 10.5743 4.65039 8.01222 4.65039Z" fill="#6CAAE4"/>
<path d="M8.00001 4.02682C5.49577 4.02682 3.46118 5.94481 3.46118 8.30553C3.46118 8.47921 3.49166 8.62659 3.51504 8.7519C3.66182 8.80218 3.78298 8.84702 3.96547 8.91065C3.92486 8.69142 3.87712 8.53583 3.87712 8.30553C3.87712 6.15651 5.72034 4.41893 8.00001 4.41893C10.2797 4.41893 12.1229 6.15651 12.1229 8.30553C12.1229 8.52291 12.0847 8.68295 12.0484 8.89054L12.5009 8.72031C12.5184 8.5679 12.5388 8.46226 12.5388 8.30553C12.5388 5.94481 10.5043 4.02683 8.00002 4.02682H8.00001Z" fill="#3C88CF"/>
<path fill-rule="evenodd" clip-rule="evenodd" d="M2.53821 8.45786L7.94272 11.8012L13.4623 8.41589L7.93731 10.3838L2.53821 8.45786Z" fill="#2A2347" stroke="#3C88CF" stroke-width="0.29379" stroke-linecap="square"/>
<path fill-rule="evenodd" clip-rule="evenodd" d="M7.35927 8.77224C7.1088 8.78059 6.83902 9.07062 6.72426 9.15478C6.6095 9.23893 6.44118 9.17773 6.33407 9.12417C6.22696 9.07062 6.19636 8.92908 6.19636 8.92908C6.19636 8.92908 6.06247 8.82962 5.9171 8.88317C5.77174 8.93673 5.76416 9.05343 5.83677 9.20833C5.89415 9.33074 6.02598 9.27294 6.1428 9.28484C6.4467 9.47593 6.62669 9.45316 6.80842 9.39195C6.99015 9.33074 7.10103 9.08479 7.35927 9.03236C7.55859 8.9919 7.85658 9.22363 7.81067 9.30779C7.76477 9.39195 7.50818 9.22653 7.38605 9.29632C7.22539 9.38812 7.0915 9.60617 7.18331 9.71328C7.27512 9.8204 7.35162 9.65208 7.55437 9.53732C7.80329 9.33821 7.99811 9.80509 7.99811 9.80509L8.00002 9.80125L8.00193 9.80509C8.00193 9.80509 8.17918 9.50034 8.44568 9.53732C8.67644 9.56934 8.72494 9.82039 8.81675 9.71328C8.90856 9.60617 8.77467 9.38813 8.61401 9.29632C8.49188 9.22653 8.23529 9.39195 8.18939 9.30779C8.14348 9.22363 8.44147 8.9919 8.64078 9.03236C8.89902 9.08479 9.00991 9.33074 9.19164 9.39195C9.37337 9.45316 9.55335 9.47593 9.85726 9.28484C9.97408 9.27294 10.1059 9.33074 10.1633 9.20833C10.2359 9.05343 10.2283 8.93673 10.083 8.88317C9.93759 8.82962 9.80371 8.92908 9.80371 8.92908C9.80371 8.92908 9.7731 9.07062 9.66599 9.12417C9.55888 9.17773 9.39056 9.23893 9.2758 9.15478C9.16103 9.07062 8.89126 8.78059 8.64078 8.77224C8.41798 8.76481 8.26738 8.83288 8.00003 9.0534C7.73268 8.83288 7.58207 8.76481 7.35927 8.77224Z" fill="#D4CD58"/>
<path fill-rule="evenodd" clip-rule="evenodd" d="M7.15936 4.99658L5.08026 8.62879H6.52052L7.19379 7.29755L7.99521 8.49299L8.86549 7.29755L9.69942 8.62879H10.9063L10.9197 8.61349L8.9286 5.01188L7.99903 6.51144L7.15936 4.99658H7.15936Z" fill="#FF0D00"/>
</svg>
